src/icons/menu.svg

<svg xmlns="http://www.w3.org/2000/svg" xml:space="preserve" style="fill-rule:evenodd;clip-rule:evenodd;stroke-linejoin:round;stroke-miterlimit:2" viewBox="0 0 2048 2048"><path d="M422.203 416.524c-48.728-48.757-127.872-48.78-176.628-.053L68.894 593.047c-48.756 48.728-48.779 127.872-.052 176.628l861.292 861.805c48.727 48.75 127.876 48.78 176.626.05l176.68-176.58c48.76-48.72 48.78-127.87.05-176.62z" style="fill:#fff"/><path d="M1979.14 769.812c48.73-48.749 48.72-127.893-.03-176.628l-176.65-176.601c-48.75-48.735-127.89-48.723-176.63.027l-861.415 861.68c-48.735 48.75-48.723 127.89.026 176.62l176.655 176.61c48.749 48.73 127.894 48.72 176.624-.03z" style="fill:#fff"/></svg>

<?xml version="1.0" encoding="UTF-8" standalone="no"?>
<!DOCTYPE svg PUBLIC "-//W3C//DTD SVG 1.1//EN" "http://www.w3.org/Graphics/SVG/1.1/DTD/svg11.dtd">
<svg width="100%" height="100%" viewBox="0 0 2048 2048" version="1.1" xmlns="http://www.w3.org/2000/svg" xmlns:xlink="http://www.w3.org/1999/xlink" xml:space="preserve" xmlns:serif="http://www.serif.com/" style="fill-rule:evenodd;clip-rule:evenodd;stroke-linejoin:round;stroke-miterlimit:2;">
    <g>
        <path d="M422.203,416.524C373.475,367.767 294.331,367.744 245.575,416.471L68.894,593.047C20.138,641.775 20.115,720.919 68.842,769.675L930.134,1631.48C978.861,1680.23 1058.01,1680.26 1106.76,1631.53L1283.44,1454.95C1332.2,1406.23 1332.22,1327.08 1283.49,1278.33L422.203,416.524Z" style="fill:white;"/>
        <path d="M1979.14,769.812C2027.87,721.063 2027.86,641.919 1979.11,593.184L1802.46,416.583C1753.71,367.848 1674.57,367.86 1625.83,416.61L764.415,1278.29C715.68,1327.04 715.692,1406.18 764.441,1454.91L941.096,1631.52C989.845,1680.25 1068.99,1680.24 1117.72,1631.49L1979.14,769.812Z" style="fill:white;"/>
    </g>
</svg>
